X:195
M:9/8
L:1/8
K:F
|: a3 afd afd | efg gec | gec | a3 afd gec | def gfe f3 :|
|: cAF cAF Acf | dBG dBG Bdg | cAF cAF Acf | cBA GFE F3 :|

